X:1
T:My God, the spring of all my joys
T:Thomas Jarman
T:p41, The Wesleyan Melodist, London: [c1840]
T:This edition by Edmund Gooch released into the public domain September 2016.
T:My God, the spring of all my joys
T:CONSTANT COMFORT. CM. 213.
C:Thomas Jarman
Z:p41, The Wesleyan Melodist,
Z:London: [c1840]
%%score [ 1 2 3 4 ]
L:1/8
M:3/2
K:A
V:1 treble nm="Soprano" snm="S."
V:2 treble nm="Alto" snm="A."
V:3 treble-8 transpose=-12 nm="Tenor" snm="T."
V:4 bass nm="Bass" snm="B."
V:1
 A4 | (A3 B c4) B4 | c8 e4 | (d4 c4) B4 | A8 c4 | (B4 A4) (G2 B2) | (c2 f2 e4) ^d4 | e8 e4 | %8
w: The|op- * * ’ning|heav’ns a-|round _ me|shine, With|beams _ of _|sa- * * cred|bliss, If|
w: My|God, _ _ the|spring of|all _ my|joys, The|life _ of _|my _ _ de-|lights; The|
w: In|dar- * * kest|shades, if|thou _ ap-|pear, My|daw- * ning _|is _ _ be-|gun: Thou|
 (e3 d c3 d) e4 | (f4 e4) d4 | (c3 B A3 B) c4 | B8 B4 | (c2 e2 f2 e2) (d2 c2) | (d4 c4) B4 | A8 |] %15
w: Je- * * * sus|shows _ his|mer- * * * cy|mine, And|whis- * * * pers _|I _ am|his.|
w: glo- * * * ry|of _ my|brigh- * * * test|days, And|com- * * * fort _|of _ my|nights.|
w: art _ _ _ my|soul’s _ bright|mor- * * * ning-|star, And|thou _ _ _ my _|ri- * sing|sun.|
V:2
 E4 | E8 E4 | (E4 F4) A4 | (F4 E4) D4 | C8 E4 | (E4 ^D4) (E2 G2) | (A4 G4) F4 | G8 G4 | A8 A4 | %9
w: The|op- ’ning|heav’ns _ a-|round _ me|shine, With|beams _ of _|sa- * cred|bliss, If|Je- sus|
w: My|God, the|spring _ of|all _ my|joys, The|life _ of _|my _ de-|lights; The|glo- ry|
w: In|dar- kest|shades, _ if|thou _ ap-|pear, My|daw- * ning _|is _ be-|gun: Thou|art my|
 A8 G4 | A8 A4 | G8 G4 | A8 (G2 A2) | (F4 E4) D4 | C8 |] %15
w: shows his|mer- cy|mine, And|whis- pers _|I _ am|his.|
w: of my|brigh- test|days, And|com- fort _|of _ my|nights.|
w: soul’s bright|mor- ning-|star, And|thou my _|ri- * sing|sun.|
V:3
 c4 | (A3 G A4) G4 | A8 A4 | A8 G4 | A8 A4 | B8 B4 | (c4 B4) B4 | B8 B4 | (c3 d e4) A4 | %9
w: The|op- * * ’ning|heav’ns a-|round me|shine, With|beams of|sa- * cred|bliss, If|Je- * * sus|
w: My|God, _ _ the|spring of|all my|joys, The|life of|my _ de-|lights; The|glo- * * ry|
w: In|dar- * * kest|shades, if|thou ap-|pear, My|daw- ning|is _ be-|gun: Thou|art _ _ my|
 (d4 c4) B4 | (c3 d e4) e4 | e8 e4 | (e4 d2 e2) e4 | (d2 f2 A4) G4 | A8 |] %15
w: shows _ his|mer- * * cy|mine, And|whis- * * pers|I _ _ am|his.|
w: of _ my|brigh- * * test|days, And|com- * * fort|of _ _ my|nights.|
w: soul’s _ bright|mor- * * ning-|star, And|thou _ _ my|ri- * * sing|sun.|
V:4
 A,,4 | (C,3 B,, A,,4) E,4 | (A,4 F,4) C,4 | (D,4 E,4) E,4 | A,,8 A,4 | (G,4 F,4) E,4 | %6
w: The|op- * * ’ning|heav’ns _ a-|round _ me|shine, With|beams _ of|
w: My|God, _ _ the|spring _ of|all _ my|joys, The|life _ of|
w: In|dar- * * kest|shades, _ if|thou _ ap-|pear, My|daw- * ning|
 (A,4 B,4) B,,4 | E,8 E,4 | %8
w: sa- * cred|bliss, If|
w: my _ de-|lights; The|
w: is _ be-|gun: Thou|
"^My soul would leave this heavy clayAt that transporting word;Run up with joy the shining way,To see and praise my Lord.Fearless of hell and ghastly death,I’d break through ev’ry foe;The wings of love, and arms of faith,Would bear me conqu’ror through." A,8 C,4 | %9
w: Je- sus|
w: glo- ry|
w: art my|
 (D,4 E,4) E,4 | %10
w: shows _ his|
w: of _ my|
w: soul’s _ bright|
 (A,3 B,"^The source gives the parts in the order Tenor - Alto - Treble - Bass(labelled as such in the first piece in the book). The treble and bassparts are bracketed together, with small notes between them to fill inthe harmony of a keyboard part which predominantly doubles thevoices. This accompaniment has been omitted from the presentedition.Only the first verse of the text is given in the source: subsequentverses have here been added editorially." C3 B,) A,4 | %11
w: mer- * * * cy|
w: brigh- * * * test|
w: mor- * * * ning-|
 E,8 E,4 | (A,2 C,2 D,2 C,2) (B,,2 A,,2) | (D,4 E,4) E,4 | A,,8 |] %15
w: mine, And|whis- * * * pers _|I _ am|his.|
w: days, And|com- * * * fort _|of _ my|nights.|
w: star, And|thou _ _ _ my _|ri- * sing|sun.|

